dist/img/common/svg/ic_tumblr.svg

<svg width="46" height="46" viewBox="0 0 46 46" fill="none" xmlns="http://www.w3.org/2000/svg">
<rect width="46" height="46" rx="22.5" fill="#35465C"/>
<g clip-path="url(#clip0_239_44)">
<path d="M28.6175 31.7617C28.1075 32.3281 26.7425 33 24.965 33C20.435 33 19.4525 29.5312 19.4525 27.5078V21.8828H17.6713C17.465 21.8828 17.2963 21.707 17.2963 21.4922V18.8359C17.2963 18.5547 17.465 18.3047 17.72 18.2109C20.045 17.3594 20.7763 15.2422 20.8813 13.6367C20.9113 13.207 21.125 13 21.485 13H24.1438C24.35 13 24.5188 13.1758 24.5188 13.3906V17.8906H27.6313C27.8375 17.8906 28.0063 18.0625 28.0063 18.2773V21.4688C28.0063 21.6836 27.8375 21.8594 27.6313 21.8594H24.5038V27.0625C24.5038 28.3984 25.3925 29.1562 27.0538 28.4609C27.2338 28.3867 27.3913 28.3359 27.53 28.375C27.6613 28.4102 27.7475 28.5078 27.8075 28.6836L28.6325 31.1953C28.7 31.3906 28.7563 31.6094 28.6175 31.7617Z" fill="white"/>
</g>
<defs>
<clipPath id="clip0_239_44">
<rect width="12" height="20" fill="white" transform="translate(17 13)"/>
</clipPath>
</defs>
</svg>

<svg width="46" height="46" viewBox="0 0 46 46" fill="none" xmlns="http://www.w3.org/2000/svg"><rect width="46" height="46" rx="22.5" fill="#35465C"/><g clip-path="url(#clip0_239_44)"><path d="M28.617 31.762c-.51.566-1.875 1.238-3.652 1.238-4.53 0-5.512-3.469-5.512-5.492v-5.625H17.67a.384.384 0 01-.375-.39v-2.657a.66.66 0 01.424-.625c2.325-.852 3.056-2.969 3.161-4.574.03-.43.244-.637.604-.637h2.659c.206 0 .375.176.375.39v4.5h3.112a.38.38 0 01.375.387v3.192c0 .215-.169.39-.375.39h-3.127v5.203c0 1.336.888 2.094 2.55 1.399.18-.074.337-.125.476-.086.131.035.217.133.277.309l.826 2.511c.067.196.123.414-.015.567z" fill="#fff"/></g><defs><clipPath id="clip0_239_44"><path fill="#fff" transform="translate(17 13)" d="M0 0h12v20H0z"/></clipPath></defs></svg>
